X:2153
L:1/8
M:2/2
K:C
 (G>A)G>F .E2 .E2 | A2 A2 G4 | (AB) c2 (Bc) d2 | egfe (e2 d2) | (G>A)G>F .E2 .E2 | 
 .A2 A>B .G2 .G2 | ABcA Bcdf | .e2 .c2 c3 z :: e2 (e>f) d2 cB | c2 c>d{c} (B2 AG) | ABcA BcdB | 
 cdef (e2 d2) | (G>A)G>F E2 E2 | A2 A>B G2 G2 | ABcA BcdB | .e2 .c2 c4 :|

